X:211
%%etbk:tnset id:156,pos:2,rep:3x,ant:
%%etbk:wsite http://www.trad.katesplacedoolin.com/tunes/mollyban.html
%%etbk:video src:ytube,cde:5_wkF6TO4h0,desc:first tune
%%etbk:pldat 2016-07-21T18:55,2015-12-28T17:48,2015-04-28T17:41,2015-01-20T17:43,2014-12-31T15:13,2014-12-14T16:16,2014-09-26T18:09,2014-09-10T16:40,2014-04-27T15:09,2014-03-12T18:32,2014-02-25T19:26,2014-02-16T16:12,2014-02-15T16:25,2014-02-05T15:52,2014-02-04T18:38,2013-11-19T17:08,2013-11-12T17:44,2013-11-06T18:16,2013-11-05T18:30,2013-11-04T18:40,2013-05-18T13:52,2013-05-15T16:35,2013-05-14T18:47,2013-05-05T13:40,2013-05-02T18:19
T:Molly Ban
Z: Piano Box Version by Martin Fleischmann
H: Created 2013-02-19 /  Last Modified 2013-02-19
M:4/4
L:1/8
R:reel
K:Edor
|: "em"!1!E!2!BBA B2!1!A!3!G | "D"!2!FD!4!AD !5!BD!4!A!1!D | "em"!1!E!2!BBA B2Bc | "bm"!4!dB!1!A!4!d "em"!2!B!1!EED|
"em"!1!E!2!BBA B2!1!A!3!G | "D"!2!FD!4!AD !5!BD!4!A!1!D | "em"!1!E!2!BBA B2Bc  |1 "bm"!4!dB!1!A!4!d "em"!2!B!1!EED:|2 "bm"!4!dBAd "bm"!2!B!1!EE!2!B||
|: "em"!5!e2!1!B!3!e !3!e!5!gfe | "bm"!2!d!1!BB!2!c !1!d2d!3!f | "em"!2!e2!1!BB !2!e!4!gfe | "bm"!1!d!2!B!1!A!4!d "em"!2!B!1!EEB|
"em"!5!e2!1!B!3!e !3!e!5!gfe | "bm"!2!d!1!BB!2!c !1!d2de | "D"!3!f2fe defe |1 !1!d!2!B!1!A!4!d "em"!2!B!1!EE!2!B:|2 !1!d!2!B!1!A!4!d "em"!2!B!1!EED||


